digital/Imbassy-X-Files/65ef0811cc67439994568a45/65ef0811cc6743999456901a_Frame-1.svg

<svg fill="none" height="24" viewBox="0 0 24 24" width="24" xmlns="http://www.w3.org/2000/svg"><path d="m20.5 16.7212-8.209-4.56c-.089-.0494-.1892-.0753-.291-.0753s-.202.0259-.291.0753l-8.209 4.56m.028-9.42797 8.18 4.54397c.0892.0496.1895.0756.2915.0756s.2023-.026.2915-.0756l8.209-4.55997m-8.5 13.72197v-17.99997m9 4.353v9.29397c.0001.1072-.0286.2123-.0829.3047-.0544.0923-.1324.1684-.2261.2203l-8.4 4.666c-.089.0494-.1892.0753-.291.0753s-.202-.0259-.291-.0753l-8.4-4.666c-.09368-.0519-.17175-.128-.22608-.2203-.05434-.0924-.08297-.1975-.08292-.3047v-9.29397c.00013-.10696.02884-.21193.08317-.30406s.1323-.16807.22583-.21994l8.4-4.667c.089-.04938.1892-.07529.291-.07529s.202.02591.291.07529l8.4 4.667c.0935.05187.1715.12781.2258.21994.0544.09213.0831.1971.0832.30406z" stroke="#090a0b" stroke-linecap="square" stroke-width="1.5"/></svg>

<svg width="24" height="24" viewBox="0 0 24 24" fill="none" xmlns="http://www.w3.org/2000/svg">
<path d="M20.5 16.7212L12.291 12.1612C12.202 12.1118 12.1018 12.0859 12 12.0859C11.8982 12.0859 11.798 12.1118 11.709 12.1612L3.5 16.7212M3.528 7.29323L11.708 11.8372C11.7972 11.8868 11.8975 11.9128 11.9995 11.9128C12.1015 11.9128 12.2018 11.8868 12.291 11.8372L20.5 7.27723M12 20.9992V2.99923M21 7.35223V16.6462C21.0001 16.7534 20.9714 16.8585 20.9171 16.9509C20.8627 17.0432 20.7847 17.1193 20.691 17.1712L12.291 21.8372C12.202 21.8866 12.1018 21.9125 12 21.9125C11.8982 21.9125 11.798 21.8866 11.709 21.8372L3.309 17.1712C3.21532 17.1193 3.13725 17.0432 3.08292 16.9509C3.02858 16.8585 2.99995 16.7534 3 16.6462V7.35223C3.00013 7.24527 3.02884 7.1403 3.08317 7.04817C3.1375 6.95604 3.21547 6.8801 3.309 6.82823L11.709 2.16123C11.798 2.11185 11.8982 2.08594 12 2.08594C12.1018 2.08594 12.202 2.11185 12.291 2.16123L20.691 6.82823C20.7845 6.8801 20.8625 6.95604 20.9168 7.04817C20.9712 7.1403 20.9999 7.24527 21 7.35223Z" stroke="#090A0B" stroke-width="1.5" stroke-linecap="square"/>
</svg>
